!!!!SEGMENT: pl-wnifc--13846--106_anonim--piesni-polskie-i-ruskie-ludu-galicyjskiego-106-boze-co-wladasz-losami-ludzkiemi.krn
!!!kernsource:
!!!cenid: 18xx:3328
!!!COM: Anonim
!!!COM-rismid: pe30004985
!!!CDT:
!!!CNT:
!!!GTL: Pieśni polskie i ruskie ludu galicyjskiego
!!!OTL: 106. Boże, co władasz losami ludzkiemi!
!!!PDT: 1833
!!!AGN:
!!!SMS-siglum: PL-Wnifc
!!!SMS-shelfmark: 13846
!!!SMS-shelfwork: 106 G
!!!NIFC-rismid: 1001039224
!!!URL-scan: http://repozytorium.nifc.pl/skany/pl-wnifc-nut--13846
!!!ONB-nifc:
!!!key: d
**kern	**kern	**kern	**text
*part2	*part2	*part1	*part1
*group2	*group2	*group1	*group1
*staff3	*staff2	*staff1	*staff1
*I"[Fortepian.]	*I"[Fortepian.]	*I"[Głos.]	*
*Ipiano	*Ipiano	*Ivox	*
*ICklav	*ICklav	*ICvox	*
*IGacmp	*IGacmp	*IGsolo	*
*clefF4	*clefG2	*clefG2	*
*k[b-]	*k[b-]	*k[b-]	*
*d:	*d:	*d:	*
*M3/8	*M3/8	*M3/8	*
=1-	=1-	=1-	=1-
*^	*	*	*
!	!	!	!LO:TX:a:B:t=E.126.	!
!	!	!	!LO:TX:a:B:t=Andante	!
8AA/L	4.AA\	16ee\|LL	(16ee\LL	Bo-
.	.	16cc#X\|JJ	16cc#X\JJ)	.
8A/ 8G/ 8E/	.	8.a/L	8.a/	-że,
8A/J 8G/ 8E/	.	.	.	.
.	.	16cc#\Jk	16cc#\	co
=2	=2	=2	=2	=2
8AA/L	4.AA\	4dd\	4dd\	wła-
8A/ 8F/ 8D/	.	.	.	.
8A/J 8F/ 8D/	.	8dd\	8dd\	-dasz
!!linebreak:original
=3	=3	=3	=3	=3
8AA/L	4.AA\	16ee\LL	16ee\	lo-
.	.	16cc#X\JJ	16cc#X\	-sa-
8A/ 8G/ 8E/	.	8a\L	8a/	-mi
8A/J 8G/ 8E/	.	8cc#X\J	8cc#/	ludz-
.	.	(<32qdd/LLL	.	.
.	.	32qcc#/	.	.
.	.	32qbn/	.	.
.	.	32qcc#/JJJ)	.	.
=4	=4	=4	=4	=4
8AA/L	4.AA\	4dd\	4dd\	-kie-
8A/ 8F/ 8D/	.	.	.	.
8A/J 8F/ 8D/	.	8a/	8a/	-mi!
!!linebreak:original
=5	=5	=5	=5	=5
8AA/L	4.AA\	16ee\LL	(16ee\LL	chciéj
.	.	16cc#X\JJ	16cc#X\JJ)	.
8A/ 8G/ 8E/	.	8.a/	8.a/	się
8A/J 8G/ 8E/	.	.	.	.
.	.	16cc#\	16cc#\	to
=6	=6	=6	=6	=6
8AA/L	4.AA\	4dd\	4dd\	sa-
8A/ 8F/ 8D/	.	.	.	.
8A/J 8F/ 8D/	.	8fff\ 8ff\	8ff\	-mo
!!linebreak:original
=7	=7	=7	=7	=7
8AA/L	4.AA\	16eee\LL 16ee\	16ee\	za-
.	.	16ccc#X\JJ 16cc#X\	16cc#X\	-tru-
8A/ 8G/ 8E/	.	8.aa\L 8.a\	8.a/	-dnić
8A/J 8G/ 8E/	.	.	.	.
.	.	16ccc#\J 16cc#\	16cc#\	mo-
=8	=8	=8	=8	=8
8D/L	4.D\	4ddd\ 4dd\	4dd\	-je-
8A/ 8F/	.	.	.	.
8A/J 8F/	.	8dd\	8dd\	-mi
!!pagebreak:original
=9||	=9||	=9||	=9||	=9||
8AA/L	4.AA\	(16a/LL	(16a/LL	wszak
.	.	16cc#X\JJ)	16cc#X\JJ)	.
8A/ 8G/ 8E/	.	8.cc#\^L	8.cc#/	to
8A/J 8G/ 8E/	.	.	.	.
.	.	16a/Jk	16a/	w_twéj
=10	=10	=10	=10	=10
!LO:TX:t=P:problem=mixed beam	!	!	!	!
8DD/L	4.DD\	(16a/LL	(16a/LL	mo-
.	.	16dd\JJ)	16dd\JJ)	.
8A\ 8F\ 8D\	.	8.dd\^L	(8.dd/	.
8A\J 8F\ 8D\	.	.	.	.
.	.	16a/Jk 16f\	16a/)	-cy
!!linebreak:original
=11	=11	=11	=11	=11
8AAA/L	4.AAA\	16.b-/LL 16.g/	16.b-/	wszech-
.	.	32a/JJk 32f/	32a/	mo-
8AA/	.	8.g/L 8.e/	8.g/	-gą-
8AA/J	.	.	.	.
.	.	16f/Jk 16d/	16f/	-cy
=12	=12	=12	=12	=12
8AAA/L	4.AAA\	(16f/LL 16d/	(16f/LL	Bo-
.	.	16e/JJ 16c#X/)	16e/JJ)	.
8AA/	.	4e/ 4c#/^	4e/	-że,
8AA/J	.	.	.	.
*v	*v	*	*	*
!!linebreak:original
=13	=13	=13	=13
*tremolo	*	*	*
!	!LO:TX:t=P:problem=mixed beam	!LO:TX:t=P:problem=mixed beam	!
(16G\ 16C#\ 16AA\LL	(16a/LL	(16a/LL	cze-
16A	16aa\JJ)	16aa\JJ)	.
16G\ 16C#\ 16AA\	8.aa\L 8.a\^<	8.aa\	-muż
16A\	.	.	.
16G\ 16C#\ 16AA\	.	.	.
16A\JJ)	16ee\Jk 16a\	16ee\	co
=14	=14	=14	=14
.	(8qgg/	.	.
(16F\ 16D\ 16AA\LL	16ff\LL) 16a\	(16ff\LL	ko-
16A\	16ee\JJ	16ee\JJ)	.
16F\ 16D\ 16AA\	8.dd\^<L	(8.dd\L	-cham
16A\	.	.	.
16F\ 16D\ 16AA\	.	.	.
16A\JJ)	16ff\Jk	16ff\Jk)	.
!!linebreak:original
=15	=15	=15	=15
(16G\ 16E\ 16AA\LL	16.ee\LL	16.ee\	mo-
16A\	.	.	.
.	32cc#X\JJk	32cc#X\	-jem
16G\ 16E\ 16AA\	8.a/L	8.a/	być
16A\	.	.	.
16G\ 16E\ 16AA\	.	.	.
16A\JJ)	16cc#\Jk	16cc#X\	nie
*Xtremolo	*	*	*
=16	=16	=16	=16
16F\LL 16D\	4dd\	4dd\	mo-
16A\	.	.	.
16F\ 16D\	.	.	.
16A\JJ	.	.	.
8F\ 8D\	8dd\	8dd\	-że.
==	==	==	==
*-	*-	*-	*-
!!!system-decoration: g1{g2}
!!!RDF**kern: > = above
!!!RDF**kern: < = below
!!!RDF**kern: | = vertical stroke
!!!AIN: 1 piano 1 vox
!!!ENC: Katarzyna Serwa
!!!END: 2021-11-11
